svg/business/VIP_4_line.svg

<?xml version="1.0" encoding="UTF-8"?>
<svg width="24px" height="24px" viewBox="0 0 24 24" version="1.1" xmlns="http://www.w3.org/2000/svg" xmlns:xlink="http://www.w3.org/1999/xlink">
    <title>VIP_4_line</title>
    <g id="Icon" stroke="none" stroke-width="1" fill="none" fill-rule="evenodd">
        <g id="Business" transform="translate(-192.000000, -192.000000)">
            <g id="VIP_4_line" transform="translate(192.000000, 192.000000)">
                <path d="M24,0 L24,24 L0,24 L0,0 L24,0 Z M12.5935,23.2578 L12.5819,23.2595 L12.5109,23.295 L12.4919,23.2987 L12.4767,23.295 L12.4057,23.2595 C12.3958,23.2564 12.387,23.259 12.3821,23.2649 L12.378,23.2758 L12.3609,23.7031 L12.3659,23.7235 L12.3769,23.7357 L12.4805,23.8097 L12.4953,23.8136 L12.5071,23.8097 L12.6107,23.7357 L12.6233,23.7197 L12.6267,23.7031 L12.6096,23.2758 C12.6076,23.2657 12.601,23.2593 12.5935,23.2578 Z M12.8584,23.1453 L12.8445,23.1473 L12.6598,23.2397 L12.6499,23.2499 L12.6472,23.2611 L12.6651,23.6906 L12.6699,23.7034 L12.6784,23.7105 L12.8793,23.8032 C12.8914,23.8069 12.9022,23.803 12.9078,23.7952 L12.9118,23.7812 L12.8777,23.1665 C12.8753,23.1546 12.8674,23.147 12.8584,23.1453 Z M12.143,23.1473 C12.1332,23.1424 12.1222,23.1453 12.1156,23.1526 L12.1099,23.1665 L12.0758,23.7812 C12.0751,23.7927 12.0828,23.8019 12.0926,23.8046 L12.1083,23.8032 L12.3092,23.7105 L12.3186,23.7024 L12.3225,23.6906 L12.3404,23.2611 L12.3372,23.2485 L12.3278,23.2397 L12.143,23.1473 Z" id="MingCute" fill-rule="nonzero"></path>
                <path d="M11.1992,1.40101 C11.573,0.902709867 12.2955058,0.869536027 12.7156373,1.30135921 L12.8008,1.40101 L15.5,4.99994 L20.1451,4.99994 C21.2482731,4.99994 21.9586947,6.14221996 21.511739,7.11900399 L21.4525,7.23534 L13.0895,22.1028 C12.6343571,22.9119429 11.5032959,22.9504735 10.9837799,22.2183918 L10.9106,22.1028 L2.5476,7.23534 C2.00679231,6.27388808 2.65404859,5.0946292 3.72452973,5.00533925 L3.85497,4.99994 L8.50004,4.99994 L11.1992,1.40101 Z M8.43385,6.99994 L4.70989,6.99994 L12,19.9602 L19.2902,6.99994 L15.5662,6.99994 L12.9433,11.3715 C12.516,12.0836 11.484,12.0836 11.0568,11.3715 L8.43385,6.99994 Z M12,3.66661 L10.2035,6.06203 L12,9.05629 L13.7966,6.06202 L12,3.66661 Z" id="形状" fill="#09244B"></path>
            </g>
        </g>
    </g>
</svg>

<svg xmlns="http://www.w3.org/2000/svg" width="24" height="24"><g fill="none" fill-rule="evenodd"><path d="M24 0v24H0V0zM12.594 23.258l-.012.002-.071.035-.02.004-.014-.004-.071-.036c-.01-.003-.019 0-.024.006l-.004.01-.017.428.005.02.01.013.104.074.015.004.012-.004.104-.074.012-.016.004-.017-.017-.427c-.002-.01-.009-.017-.016-.018m.264-.113-.014.002-.184.093-.01.01-.003.011.018.43.005.012.008.008.201.092c.012.004.023 0 .029-.008l.004-.014-.034-.614c-.003-.012-.01-.02-.02-.022m-.715.002a.023.023 0 0 0-.027.006l-.006.014-.034.614c0 .012.007.02.017.024l.015-.002.201-.093.01-.008.003-.011.018-.43-.003-.012-.01-.01z"/><path fill="#09244B" d="M11.2 1.401a1.001 1.001 0 0 1 1.516-.1l.085.1L15.5 5h4.645a1.5 1.5 0 0 1 1.367 2.119l-.06.116-8.363 14.868a1.25 1.25 0 0 1-2.105.115l-.073-.115L2.548 7.235a1.5 1.5 0 0 1 1.177-2.23L3.855 5H8.5zM8.433 7H4.71L12 19.96 19.29 7h-3.724l-2.623 4.371a1.1 1.1 0 0 1-1.886 0zM12 3.667l-1.796 2.395L12 9.056l1.797-2.994z"/></g></svg>
